X:310
T:Atholl Brose
O:england
S:Logan's -- 55
E:7
M:4/4
K:D
{gde}c{g}A3 {gAGAG}A4 {gef}e3A {gAGAG}A2d2|{gde}c{g}A3 {gAGAG}A3e {ag}a3
f
{gef}e3d|\
{gde}c{g}A3 {gAGAG}A4 {gef}e3A {gAGAG}A2d2|{g}cde2 {g}G3{g}B {gf}g2G2
{dc}d3B:|\
{g}ce3 {gf}g3e {ag}a3e {gf}g3e|{g}ce3 {gf}g3e {ag}a4 {GdG}a3d|\
{g}ce3 {gf}g3e {ag}a3e {gf}g3e|{gef}e3d {gf}g3d {gBd}BG3 {dc}d3{g}B|\
{g}ce3 {gf}g3e {ag}a3e {gf}g3e|{g}ce3 {gf}g3e {ag}a4 {GdG}a2d2|\
{g}c{GdG}e3 {gf}g2a2 {f}g3e {g}f3d|{g}efg2 {GdB}d3c {gBd}B{g}G3 {dc}d4||
\


